X:25
M:4/4
L:1/4
K:Eb
B e B B | B G B2 | E G B G | E G F2 | B B/c/ B G | E F C2 | !sintro!E G B G | F3/2 E/ E2 !eintro!|]
